src/css/fonts/SVGs/iota_icons/getting_started.svg

<svg width="48" height="48" viewBox="0 0 48 48" fill="none" xmlns="http://www.w3.org/2000/svg">
<path fill-rule="evenodd" clip-rule="evenodd" d="M16.6667 13C14.6416 13 13 14.6416 13 16.6667V21.5556C13 23.5806 14.6416 25.2222 16.6667 25.2222H19.1111C21.1362 25.2222 22.7778 23.5806 22.7778 21.5556V16.6667C22.7778 14.6416 21.1362 13 19.1111 13H16.6667ZM15.4444 16.6667C15.4444 15.9917 15.9917 15.4444 16.6667 15.4444H19.1111C19.7861 15.4444 20.3333 15.9917 20.3333 16.6667V21.5556C20.3333 22.2306 19.7861 22.7778 19.1111 22.7778H16.6667C15.9917 22.7778 15.4444 22.2306 15.4444 21.5556V16.6667Z" fill="black"/>
<path fill-rule="evenodd" clip-rule="evenodd" d="M16.6667 26.4444C14.6416 26.4444 13 28.0861 13 30.1111V31.3333C13 33.3584 14.6416 35 16.6667 35H19.1111C21.1362 35 22.7778 33.3584 22.7778 31.3333V30.1111C22.7778 28.0861 21.1362 26.4444 19.1111 26.4444H16.6667ZM15.4444 30.1111C15.4444 29.4361 15.9917 28.8889 16.6667 28.8889H19.1111C19.7861 28.8889 20.3333 29.4361 20.3333 30.1111V31.3333C20.3333 32.0083 19.7861 32.5556 19.1111 32.5556H16.6667C15.9917 32.5556 15.4444 32.0083 15.4444 31.3333V30.1111Z" fill="black"/>
<path fill-rule="evenodd" clip-rule="evenodd" d="M24 16.6667C24 14.6416 25.6416 13 27.6667 13H31.3333C33.3584 13 35 14.6416 35 16.6667V17.8889C35 19.9139 33.3584 21.5556 31.3333 21.5556H27.6667C25.6416 21.5556 24 19.9139 24 17.8889V16.6667ZM27.6667 15.4444C26.9917 15.4444 26.4444 15.9917 26.4444 16.6667V17.8889C26.4444 18.5639 26.9917 19.1111 27.6667 19.1111H31.3333C32.0083 19.1111 32.5556 18.5639 32.5556 17.8889V16.6667C32.5556 15.9917 32.0083 15.4444 31.3333 15.4444H27.6667Z" fill="black"/>
<path fill-rule="evenodd" clip-rule="evenodd" d="M27.6667 22.7778C25.6416 22.7778 24 24.4194 24 26.4444V31.3333C24 33.3584 25.6416 35 27.6667 35H31.3333C33.3584 35 35 33.3584 35 31.3333V26.4444C35 24.4194 33.3584 22.7778 31.3333 22.7778H27.6667ZM26.4444 26.4444C26.4444 25.7694 26.9917 25.2222 27.6667 25.2222H31.3333C32.0083 25.2222 32.5556 25.7694 32.5556 26.4444V31.3333C32.5556 32.0083 32.0083 32.5556 31.3333 32.5556H27.6667C26.9917 32.5556 26.4444 32.0083 26.4444 31.3333V26.4444Z" fill="black"/>
</svg>

<svg xmlns="http://www.w3.org/2000/svg" viewBox="0 0 48 48">
  <path fill-rule="evenodd" clip-rule="evenodd" d="M16.667 13A3.667 3.667 0 0 0 13 16.667v4.889a3.667 3.667 0 0 0 3.667 3.666h2.444a3.667 3.667 0 0 0 3.667-3.666v-4.89A3.667 3.667 0 0 0 19.11 13h-2.444Zm-1.223 3.667c0-.675.548-1.223 1.223-1.223h2.444c.675 0 1.222.548 1.222 1.223v4.889c0 .675-.547 1.222-1.222 1.222h-2.444a1.222 1.222 0 0 1-1.223-1.222v-4.89Zm1.223 9.777A3.667 3.667 0 0 0 13 30.111v1.222A3.667 3.667 0 0 0 16.667 35h2.444a3.667 3.667 0 0 0 3.667-3.667v-1.222a3.667 3.667 0 0 0-3.667-3.667h-2.444Zm-1.223 3.667c0-.675.548-1.222 1.223-1.222h2.444c.675 0 1.222.547 1.222 1.222v1.222c0 .675-.547 1.223-1.222 1.223h-2.444a1.222 1.222 0 0 1-1.223-1.223v-1.222ZM24 16.667A3.667 3.667 0 0 1 27.667 13h3.666A3.667 3.667 0 0 1 35 16.667v1.222a3.667 3.667 0 0 1-3.667 3.667h-3.666A3.667 3.667 0 0 1 24 17.889v-1.222Zm3.667-1.223c-.675 0-1.223.548-1.223 1.223v1.222c0 .675.548 1.222 1.223 1.222h3.666c.675 0 1.223-.547 1.223-1.222v-1.222c0-.675-.548-1.223-1.223-1.223h-3.666Zm0 7.334A3.667 3.667 0 0 0 24 26.444v4.89A3.667 3.667 0 0 0 27.667 35h3.666A3.667 3.667 0 0 0 35 31.333v-4.889a3.667 3.667 0 0 0-3.667-3.666h-3.666Zm-1.223 3.666c0-.675.548-1.222 1.223-1.222h3.666c.675 0 1.223.547 1.223 1.222v4.89c0 .674-.548 1.222-1.223 1.222h-3.666a1.222 1.222 0 0 1-1.223-1.223v-4.889Z"/>
</svg>
